data/styles/clear/style-clear/symbols/shop-m.svg

<svg height="24" viewBox="0 0 24 24" width="24"><g fill="none" fill-rule="evenodd"><circle cx="12" cy="12" fill="#fff" opacity=".6" r="12"/><circle cx="12" cy="12" fill="#8c5f93" r="11"/><path d="m10.8597323 5c-.7058861 0-1.49053845.7502-1.62896307 1.5l-.46153846 2.5h-.92307692c-.35293847 0-.92307693.6177-.92307693 1l-.92307692 8.2353c0 .3823.46153846.7647.92307692.7647h10.15384618c.4615384 0 .9230769-.3824.9230769-.7647l-.9230769-8.2353c0-.3823-.5701385-1-.9230769-1h-.923077l-.4615384-2.5c-.1384246-.7498-.9230677-1.5-1.6289539-1.5zm0 .7647h2.2805446c.3529477 0 .8538739.3604.9230769.7353l.4615385 2.5h-5.04978461l.46154769-2.5c.06923082-.3749.57012922-.7353.92307692-.7353z" fill="#fff"/></g></svg>

<svg width="24" height="24" viewBox="0 0 24 24">
  <g fill="none" fill-rule="evenodd">
    <circle cx="12" cy="12" r="12" fill="#FFF" opacity=".6"/>
    <circle cx="12" cy="12" r="11" fill="#8C5F93"/>
    <path fill="#FFF" d="M10.8597323,5 C10.1538462,5 9.36919385,5.7502 9.23076923,6.5 L8.76923077,9 L7.84615385,9 C7.49321538,9 6.92307692,9.6177 6.92307692,10 L6,18.2353 C6,18.6176 6.46153846,19 6.92307692,19 L17.0769231,19 C17.5384615,19 18,18.6176 18,18.2353 L17.0769231,10 C17.0769231,9.6177 16.5067846,9 16.1538462,9 L15.2307692,9 L14.7692308,6.5 C14.6308062,5.7502 13.8461631,5 13.1402769,5 L10.8597323,5 Z M10.8597323,5.7647 L13.1402769,5.7647 C13.4932246,5.7647 13.9941508,6.1251 14.0633538,6.5 L14.5248923,9 L9.47510769,9 L9.93665538,6.5 C10.0058862,6.1251 10.5067846,5.7647 10.8597323,5.7647 L10.8597323,5.7647 Z"/>
  </g>
</svg>
